X:018
T: Pay the Reckoning
N: O'Farrell's Pocket Companion v.1 (Sky ed. p.20)
N: "Irish"
M: 6/8
L: 1/8
R: jig
Q: 320
K: G
G2e dBG|BAB dBG|G2e dBG|A2A BGE|
G2e dBG|BAB def|gfe dcB|ABA BGE :|
gbg faf|ege dcB|gbg faf|g2a bge|
gbg faf|ege def|gfe dcB|ABA BGE :|
